Yaru++/apps/scalable/stellarium.svg

<svg enable-background="new" height="256" viewBox="0 0 256 256" width="256" xmlns="http://www.w3.org/2000/svg" xmlns:xlink="http://www.w3.org/1999/xlink">
  <linearGradient id="linearGradient4358" gradientTransform="matrix(0 -1 1 0 -10.0054 585.9946)" gradientUnits="userSpaceOnUse" x1="88" x2="488" y1="88" y2="488">
    <stop offset="0" stop-opacity=".588235"/>
    <stop offset=".88" stop-opacity="0"/>
    <stop offset="1"/>
  </linearGradient>
  <filter id="filter4380" color-interpolation-filters="sRGB" height="1.088" width="1.106" x="-.05" y="-.04">
    <feGaussianBlur stdDeviation="8.48"/>
  </filter>
  <filter id="filter4346" color-interpolation-filters="sRGB" height="1.022" width="1.026" x="-.01" y="-.01">
    <feGaussianBlur stdDeviation="2.12"/>
  </filter>
  <filter id="filter890-6" color-interpolation-filters="sRGB" height="1.096" width="1.096" x="-.05" y="-.05">
    <feGaussianBlur stdDeviation="1.7"/>
  </filter>
  <filter id="filter969-9" color-interpolation-filters="sRGB" height="1.48" width="1.48" x="-.24" y="-.24">
    <feGaussianBlur stdDeviation=".945"/>
  </filter>
  <filter id="filter991-7" color-interpolation-filters="sRGB" height="1.48" width="1.48" x="-.24" y="-.24">
    <feGaussianBlur stdDeviation=".606"/>
  </filter>
  <filter id="filter1033-1" color-interpolation-filters="sRGB" height="1.48" width="1.48" x="-.24" y="-.24">
    <feGaussianBlur stdDeviation="1.5"/>
  </filter>
  <filter id="filter1055-2" color-interpolation-filters="sRGB" height="1.48" width="1.48" x="-.24" y="-.24">
    <feGaussianBlur stdDeviation=".39"/>
  </filter>
  <filter id="filter1103-5" color-interpolation-filters="sRGB" height="1.48" width="1.48" x="-.24" y="-.24">
    <feGaussianBlur stdDeviation=".976"/>
  </filter>
  <path d="m189.84323 74c-70.59344 0-78.18921 7.250835-77.84323 77.98706v146.01294 146.01294c-.34598 70.73623 7.24979 77.98706 77.84323 77.98706h196.31354c70.59344 0 76.00668-7.27384 77.84323-77.98706v-146.01294-146.01294c0-70.737067-7.24979-77.98706-77.84323-77.98706z" filter="url(#filter4346)" opacity=".1" transform="matrix(0 .5 -.5 0 276.82523 -15.328148)"/>
  <path d="m189.84323 74c-70.59344 0-78.18921 7.250835-77.84323 77.98706v146.01294 146.01294c-.34598 70.73623 7.24979 77.98706 77.84323 77.98706h196.31354c70.59344 0 77.84323-7.24999 77.84323-77.98706v-146.01294-146.01294c0-70.737067-7.24979-77.98706-77.84323-77.98706z" fill="url(#linearGradient4358)" filter="url(#filter4380)" opacity=".3" transform="matrix(0 .5 -.5 0 276.82523 -15.328148)"/>
  <path d="m239.82523 176.74484c0 35.29673-3.62542 39.09461-38.99353 38.92162h-73.00647-73.006464c-35.36812.17299-38.99353-3.62489-38.99353-38.92162v-98.156766c0-35.296716 3.625-38.921616 38.99353-38.921616h73.006464 73.00647c35.36853 0 38.99353 3.6249 38.99353 38.921616z" fill="#3c1d66"/>
  <path d="m15.825983 174.74533v2c0 35.29673 3.624067 39.09487 38.992187 38.92188h73.00781 73.00586c35.36811.17299 38.99414-3.62515 38.99414-38.92188v-2c0 35.29673-3.62603 39.09487-38.99414 38.92188h-73.00586-73.00781c-35.36812.17299-38.992187-3.62515-38.992187-38.92188z" opacity=".2"/>
  <path d="m54.81817 39.667201c-35.36853 0-38.992187 3.623202-38.992187 38.919923v98.158206c0 .0882.0019.16224.002.25v-96.410156c-.000047-35.29672 3.625564-38.921879 38.994094-38.921879h73.005853 73.00586c35.28016 0 38.97394 3.621035 38.99219 38.671879v-1.74805c0-35.296721-3.62561-38.919923-38.99414-38.919923h-73.00586z" fill="#fff" opacity=".3"/>
  <g enable-background="new" transform="matrix(.94898682 0 0 .95403766 8.88076149166 -33.93447400303)">
    <path d="m-130.89971 88.919107c-23.47257 0-42.49965 19.027803-42.49965 42.499853 0 23.4716 19.02793 42.49945 42.49965 42.49945 23.4717 0 42.499625-19.02785 42.499625-42.49945 0-23.47205-19.027925-42.499853-42.499625-42.499853z" fill="#fff" filter="url(#filter890-6)" opacity=".1" transform="matrix(.98099949 0 0 .98099949 310.97195 -3.94253)"/>
    <path d="m210.89912 94.411956c3.94739 6.370604 6.23365 13.878644 6.23365 21.924024 0 23.02561-18.66501 41.69072-41.69075 41.69072-10.94754 0-20.90539-4.22639-28.3444-11.12782 7.34946 11.8653 20.47742 19.77315 35.4603 19.77315 23.02573 0 41.69396-18.66833 41.69396-41.69395 0-12.08001-5.14351-22.95175-13.35276-30.566124z" fill="#e1e1e1"/>
    <path d="m8 69.033203v36.904297c.098538.66334.176126 1.37729.2929688 2 .2354418 1.25476.5168002 2.41455.8339843 3.51172.357906.69873.6994148 1.41584 1.2109379 1.97851.723.7953 1.585218 1.43869 2.542968 1.88282.95775.44412 2.011141.68945 3.119141.68945h67.503906a55.202302 54.990941 0 0 0 -55.003906-51.005859 55.202302 54.990941 0 0 0 -20.5 4.039062z" fill="#e1e1e1" opacity=".05" transform="matrix(2.1075108 0 0 2.0963533 -9.152338 18.798498)"/>
    <path d="m95.876953 215.66602h31.949217 73.00586c4.42101.02162 8.34611-.0176 11.83008-.17383s6.52683-.42948 9.18359-.8711c2.65676-.44161 4.92781-1.05218 6.86719-1.88671.96969-.41727 1.85507-.89013 2.66602-1.42579.81094-.53566 1.54697-1.13524 2.21289-1.80273s1.26224-1.40403 1.79687-2.2168c.53463-.81276 1.00676-1.70039 1.42383-2.67187.83413-1.94297 1.44828-4.21653 1.89453-6.875.44626-2.65848.72437-5.70208.89258-9.1836.16821-3.48151.22656-7.40236.22656-11.81445v-30.86328c-53.28286-16.70636-117.04132 6.08275-139.77148 58.09961-1.612561 3.81236-2.995121 7.71785-4.177737 11.68555z" fill="#ac776d" transform="matrix(1.0537554 0 0 1.0481767 -9.35815 35.569324)"/>
    <path d="m90.248047 215.66602h37.578123 73.00586c4.42101.02162 8.34611-.0176 11.83008-.17383 2.48889-.11161 4.50182-.37363 6.56055-.62305.01059-.12669.02334-.24594.03125-.38086.40406-6.8971.55859-14.62569.55859-23.28125v-12.92969a109.46101 110.92996 15.12171 0 0 -129.564453 37.38868z" fill="#574a5c" transform="matrix(1.0537554 0 0 1.0481767 -9.35815 35.569324)"/>
    <path d="m245 206c-.41707.97148.53463-.81276 0 0z" fill="#313131" transform="matrix(1.0537554 0 0 1.0481767 -9.35815 35.569324)"/>
    <path d="m16.195312 190.04492c.17246 2.80029.374018 5.46906.748047 7.69727.446255 2.65847 1.0604 4.93203 1.894532 6.875.417065.97148.889199 1.85911 1.423828 2.67187.534629.81277 1.130954 1.54931 1.796875 2.2168s1.401948 1.26707 2.21289 1.80273c.810943.53566 1.696323 1.00849 2.666016 1.42579 1.939385.83453 4.210425 1.4451 6.867188 1.88671 2.656759.44162 5.699621.71487 9.183593.8711s7.409063.19545 11.830078.17383h73.007811 73.00586c4.42101.02162 8.34611-.0176 11.83008-.17383s6.52683-.42948 9.18359-.8711c2.65676-.44161 4.92781-1.05218 6.86719-1.88671.96969-.41727 1.85507-.89013 2.66602-1.42579.81094-.53566 1.54697-1.13524 2.21289-1.80273s1.26224-1.40403 1.79687-2.2168c.53463-.81276 1.00676-1.70039 1.42383-2.67187.83413-1.94297 1.44828-4.21653 1.89453-6.875.44626-2.65848.72437-5.70208.89258-9.1836.08573-1.77442.08019-4.01217.11523-6.02148-7.22688-4.90435-16.60037-10.75586-21.46093-10.75586-36.88791 0-36.88509 37.00391-61.47657 37.00391-24.58746 0-61.475394-61.67578-98.363278-61.67578h-.007812c-14.934576-.00004-29.744776 4.27978-42.210938 13.26562z" fill="#313131" transform="matrix(1.0537554 0 0 1.0481767 -9.35815 35.569324)"/>
    <g fill="#e1e1e1">
      <circle cx="36.707" cy="109.391" r="7.357"/>
      <circle cx="52.592" cy="91.388" r="2.97"/>
      <circle cx="75.437" cy="97.893" r="4.634"/>
      <circle cx="68.684" cy="162.437" r="2.97"/>
      <circle cx="81.393" cy="143.072" r="4.785"/>
      <circle cx="48.26" cy="135.962" r="4.634"/>
      <circle cx="58.85" cy="124.464" r="1.911"/>
    </g>
    <path d="m182.5594 83.287069c-23.02658 0-41.69214 18.666271-41.69214 41.692341 0 23.02562 18.66639 41.69194 41.69214 41.69194 23.02572 0 41.69211-18.66632 41.69211-41.69194 0-23.02607-18.66639-41.692341-41.69211-41.692341z" fill="#fff" opacity=".15"/>
    <circle cx="-240.097" cy="103.808" fill="#e1e1e1" filter="url(#filter969-9)" r="4.724" transform="matrix(.98099949 0 0 .98099949 310.97195 -3.94253)"/>
    <circle cx="-263.384" cy="97.177" fill="#e1e1e1" filter="url(#filter991-7)" r="3.028" transform="matrix(.98099949 0 0 .98099949 310.97195 -3.94253)"/>
    <circle cx="-279.577" cy="115.529" fill="#e1e1e1" filter="url(#filter1033-1)" r="7.5" transform="matrix(.98099949 0 0 .98099949 310.97195 -3.94253)"/>
    <circle cx="-257.005" cy="130.894" fill="#e1e1e1" filter="url(#filter1055-2)" r="1.948" transform="matrix(.98099949 0 0 .98099949 310.97195 -3.94253)"/>
    <circle cx="-267.8" cy="142.614" fill="#e1e1e1" filter="url(#filter969-9)" r="4.724" transform="matrix(.98099949 0 0 .98099949 310.97195 -3.94253)"/>
    <circle cx="-234.026" cy="149.862" fill="#e1e1e1" filter="url(#filter1103-5)" r="4.878" transform="matrix(.98099949 0 0 .98099949 310.97195 -3.94253)"/>
    <circle cx="-246.981" cy="169.602" fill="#e1e1e1" filter="url(#filter991-7)" r="3.028" transform="matrix(.98099949 0 0 .98099949 310.97195 -3.94253)"/>
  </g>
</svg>

<svg xmlns="http://www.w3.org/2000/svg" xmlns:xlink="http://www.w3.org/1999/xlink" style="enable-background:new" width="256" height="256" version="1.0" viewBox="0 0 256 256">
 <title id="title4162">
  Adwaita Icon Template
 </title>
 <defs>
  <linearGradient id="linearGradient965" x1="48" x2="464" y1="44" y2="44" gradientUnits="userSpaceOnUse">
   <stop id="stop989" offset="0" style="stop-color:#77767b"/>
   <stop id="stop991" offset=".05" style="stop-color:#c0bfbc"/>
   <stop id="stop993" offset=".1" style="stop-color:#9a9996"/>
   <stop id="stop995" offset=".9" style="stop-color:#9a9996"/>
   <stop id="stop997" offset=".95" style="stop-color:#c0bfbc"/>
   <stop id="stop999" offset="1" style="stop-color:#77767b"/>
  </linearGradient>
  <radialGradient id="radialGradient1030" cx="64" cy="194.19" r="44" gradientTransform="matrix(-4.7273,7.9359e-7,-3.0301e-7,-1.6364,238.55,49.766)" gradientUnits="userSpaceOnUse">
   <stop id="stop1016" offset="0" style="stop-color:#fff"/>
   <stop id="stop1018" offset="1" style="stop-color:#fff;stop-opacity:.094118"/>
  </radialGradient>
  <linearGradient id="linearGradient1950" x1="70.347" x2="70.347" y1="245.4" y2="269.14" gradientUnits="userSpaceOnUse">
   <stop id="stop1944" offset="0" style="stop-color:#2d2839"/>
   <stop id="stop1946" offset="1" style="stop-color:#282433"/>
  </linearGradient>
  <linearGradient id="linearGradient4358" x1="88" x2="488" y1="88" y2="488" gradientTransform="rotate(-90,287.9946,298)" gradientUnits="userSpaceOnUse" xlink:href="#linearGradient4360"/>
  <linearGradient id="linearGradient4360">
   <stop id="stop4362" offset="0" style="stop-color:#000000;stop-opacity:0.58823532"/>
   <stop style="stop-color:#000000;stop-opacity:0" id="stop4364" offset=".88"/>
   <stop id="stop4366" offset="1" style="stop-color:#000000"/>
  </linearGradient>
  <filter style="color-interpolation-filters:sRGB" id="filter4380" width="1.106" height="1.088" x="-.05" y="-.04">
   <feGaussianBlur id="feGaussianBlur4382" stdDeviation="8.48"/>
  </filter>
  <filter style="color-interpolation-filters:sRGB" id="filter4346" width="1.026" height="1.022" x="-.01" y="-.01">
   <feGaussianBlur id="feGaussianBlur4348" stdDeviation="2.12"/>
  </filter>
  <clipPath id="d" clipPathUnits="userSpaceOnUse">
   <path style="fill:#e4e6e8" d="M 64,-40.445 H 512 V -8.222 H 96 c -15.592,0 -32,-17.02 -32,-32.223 z"/>
  </clipPath>
  <clipPath id="e" clipPathUnits="userSpaceOnUse">
   <rect style="fill:#e4e6e8" width="448" height="32.222" x="64" y="-40.45" rx="0" ry="0"/>
  </clipPath>
  <clipPath id="e-3" clipPathUnits="userSpaceOnUse">
   <rect style="fill:#e4e6e8" width="448" height="32.222" x="64" y="-40.45" rx="0" ry="0"/>
  </clipPath>
  <clipPath id="d-7" clipPathUnits="userSpaceOnUse">
   <path style="fill:#e4e6e8" d="M 64,-40.445 H 512 V -8.222 H 96 c -15.592,0 -32,-17.02 -32,-32.223 z"/>
  </clipPath>
  <filter id="filter890-6" width="1.096" height="1.096" x="-.05" y="-.05" style="color-interpolation-filters:sRGB">
   <feGaussianBlur id="feGaussianBlur42" stdDeviation="1.7"/>
  </filter>
  <filter id="filter969-9" width="1.48" height="1.48" x="-.24" y="-.24" style="color-interpolation-filters:sRGB">
   <feGaussianBlur id="feGaussianBlur39" stdDeviation=".945"/>
  </filter>
  <filter id="filter991-7" width="1.48" height="1.48" x="-.24" y="-.24" style="color-interpolation-filters:sRGB">
   <feGaussianBlur id="feGaussianBlur36" stdDeviation=".606"/>
  </filter>
  <filter id="filter1033-1" width="1.48" height="1.48" x="-.24" y="-.24" style="color-interpolation-filters:sRGB">
   <feGaussianBlur id="feGaussianBlur33" stdDeviation="1.5"/>
  </filter>
  <filter id="filter1055-2" width="1.48" height="1.48" x="-.24" y="-.24" style="color-interpolation-filters:sRGB">
   <feGaussianBlur id="feGaussianBlur30" stdDeviation=".39"/>
  </filter>
  <filter id="filter1077-5" width="1.48" height="1.48" x="-.24" y="-.24" style="color-interpolation-filters:sRGB">
   <feGaussianBlur id="feGaussianBlur27" stdDeviation=".945"/>
  </filter>
  <filter id="filter1103-5" width="1.48" height="1.48" x="-.24" y="-.24" style="color-interpolation-filters:sRGB">
   <feGaussianBlur id="feGaussianBlur24" stdDeviation=".976"/>
  </filter>
  <filter id="filter1125-6" width="1.48" height="1.48" x="-.24" y="-.24" style="color-interpolation-filters:sRGB">
   <feGaussianBlur id="feGaussianBlur21" stdDeviation=".606"/>
  </filter>
 </defs>
 <path style="opacity:0.1;filter:url(#filter4346)" d="M 189.84323,74 C 119.24979,74 111.65402,81.250835 112,151.98706 V 298 444.01294 C 111.65402,514.74917 119.24979,522 189.84323,522 H 386.15677 C 456.75021,522 462.16345,514.72616 464,444.01294 V 298 151.98706 C 464,81.249993 456.75021,74 386.15677,74 Z" transform="matrix(0,0.5,-0.5,0,276.82523,-15.328148)"/>
 <path d="M 189.84323,74 C 119.24979,74 111.65402,81.250835 112,151.98706 V 298 444.01294 C 111.65402,514.74917 119.24979,522 189.84323,522 H 386.15677 C 456.75021,522 464,514.75001 464,444.01294 V 298 151.98706 C 464,81.249993 456.75021,74 386.15677,74 Z" transform="matrix(0,0.5,-0.5,0,276.82523,-15.328148)" style="opacity:0.3;fill:url(#linearGradient4358);filter:url(#filter4380)"/>
 <path style="fill:#3c1d66" d="m 239.82523,176.74484 c 0,35.29673 -3.62542,39.09461 -38.99353,38.92162 H 127.82523 54.818766 c -35.36812,0.17299 -38.99353,-3.62489 -38.99353,-38.92162 V 78.588074 c 0,-35.296716 3.625,-38.921616 38.99353,-38.921616 h 73.006464 73.00647 c 35.36853,0 38.99353,3.6249 38.99353,38.921616 z"/>
 <path style="opacity:0.2" d="m 15.825983,174.74533 v 2 c 0,35.29673 3.624067,39.09487 38.992187,38.92188 h 73.00781 73.00586 c 35.36811,0.17299 38.99414,-3.62515 38.99414,-38.92188 v -2 c 0,35.29673 -3.62603,39.09487 -38.99414,38.92188 H 127.82598 54.81817 C 19.45005,213.8402 15.825983,210.04206 15.825983,174.74533 Z"/>
 <path style="opacity:0.3;fill:#ffffff" d="m 54.81817,39.667201 c -35.36853,0 -38.992187,3.623202 -38.992187,38.919923 v 98.158206 c 0,0.0882 0.0019,0.16224 0.002,0.25 V 80.585174 c -4.7e-5,-35.29672 3.625564,-38.921879 38.994094,-38.921879 h 73.005853 73.00586 c 35.28016,0 38.97394,3.621035 38.99219,38.671879 v -1.74805 c 0,-35.296721 -3.62561,-38.919923 -38.99414,-38.919923 h -73.00586 z"/>
 <g style="enable-background:new" transform="matrix(0.94898682,0,0,0.95403766,17.786813,-32.615059)">
  <g transform="translate(2.4330965,-6.5691558)">
   <g transform="translate(-11.817897,5.1861756)">
    <path style="opacity:0.1;fill:#ffffff;filter:url(#filter890-6)" d="m -130.89971,88.919107 c -23.47257,0 -42.49965,19.027803 -42.49965,42.499853 0,23.4716 19.02793,42.49945 42.49965,42.49945 23.4717,0 42.499625,-19.02785 42.499625,-42.49945 0,-23.47205 -19.027925,-42.499853 -42.499625,-42.499853 z" transform="matrix(0.98099949,0,0,0.98099949,310.97195,-3.9425304)"/>
    <path style="fill:#e1e1e1" d="m 210.89912,94.411956 c 3.94739,6.370604 6.23365,13.878644 6.23365,21.924024 0,23.02561 -18.66501,41.69072 -41.69075,41.69072 -10.94754,0 -20.90539,-4.22639 -28.3444,-11.12782 7.34946,11.8653 20.47742,19.77315 35.4603,19.77315 23.02573,0 41.69396,-18.66833 41.69396,-41.69395 0,-12.08001 -5.14351,-22.95175 -13.35276,-30.566124 z"/>
    <path style="opacity:0.05;fill:#e1e1e1" d="M 8,69.033203 V 105.9375 c 0.098538,0.66334 0.176126,1.37729 0.2929688,2 0.2354418,1.25476 0.5168002,2.41455 0.8339843,3.51172 0.357906,0.69873 0.6994148,1.41584 1.2109379,1.97851 0.723,0.7953 1.585218,1.43869 2.542968,1.88282 C 13.838609,115.75467 14.892,116 16,116 H 83.503906 A 55.202302,54.990941 0 0 0 28.5,64.994141 55.202302,54.990941 0 0 0 8,69.033203 Z" transform="matrix(2.1075108,0,0,2.0963533,-9.1523379,18.798498)"/>
    <path style="fill:#ac776d" d="M 95.876953 215.66602 L 127.82617 215.66602 L 200.83203 215.66602 C 205.25304 215.68764 209.17814 215.64842 212.66211 215.49219 C 216.14608 215.33596 219.18894 215.06271 221.8457 214.62109 C 224.50246 214.17948 226.77351 213.56891 228.71289 212.73438 C 229.68258 212.31711 230.56796 211.84425 231.37891 211.30859 C 232.18985 210.77293 232.92588 210.17335 233.5918 209.50586 C 234.25772 208.83837 234.85404 208.10183 235.38867 207.28906 C 235.9233 206.4763 236.39543 205.58867 236.8125 204.61719 C 237.64663 202.67422 238.26078 200.40066 238.70703 197.74219 C 239.15329 195.08371 239.4314 192.04011 239.59961 188.55859 C 239.76782 185.07708 239.82617 181.15623 239.82617 176.74414 L 239.82617 145.88086 C 186.54331 129.1745 122.78485 151.96361 100.05469 203.98047 C 98.442129 207.79283 97.059569 211.69832 95.876953 215.66602 z" transform="matrix(1.0537554,0,0,1.0481767,-9.35815,35.569324)"/>
    <path style="fill:#574a5c" d="M 90.248047 215.66602 L 127.82617 215.66602 L 200.83203 215.66602 C 205.25304 215.68764 209.17814 215.64842 212.66211 215.49219 C 215.151 215.38058 217.16393 215.11856 219.22266 214.86914 C 219.23325 214.74245 219.246 214.6232 219.25391 214.48828 C 219.65797 207.59118 219.8125 199.86259 219.8125 191.20703 L 219.8125 178.27734 A 109.46101 110.92996 15.12171 0 0 90.248047 215.66602 z" transform="matrix(1.0537554,0,0,1.0481767,-9.35815,35.569324)"/>
    <path style="fill:#313131" d="M 245 206 C 244.58293 206.97148 245.53463 205.18724 245 206 z" transform="matrix(1.0537554,0,0,1.0481767,-9.35815,35.569324)"/>
    <path style="fill:#313131" d="M 16.195312 190.04492 C 16.367772 192.84521 16.56933 195.51398 16.943359 197.74219 C 17.389614 200.40066 18.003759 202.67422 18.837891 204.61719 C 19.254956 205.58867 19.72709 206.4763 20.261719 207.28906 C 20.796348 208.10183 21.392673 208.83837 22.058594 209.50586 C 22.724515 210.17335 23.460542 210.77293 24.271484 211.30859 C 25.082427 211.84425 25.967807 212.31708 26.9375 212.73438 C 28.876885 213.56891 31.147925 214.17948 33.804688 214.62109 C 36.461447 215.06271 39.504309 215.33596 42.988281 215.49219 C 46.472253 215.64842 50.397344 215.68764 54.818359 215.66602 L 127.82617 215.66602 L 200.83203 215.66602 C 205.25304 215.68764 209.17814 215.64842 212.66211 215.49219 C 216.14608 215.33596 219.18894 215.06271 221.8457 214.62109 C 224.50246 214.17948 226.77351 213.56891 228.71289 212.73438 C 229.68258 212.31711 230.56796 211.84425 231.37891 211.30859 C 232.18985 210.77293 232.92588 210.17335 233.5918 209.50586 C 234.25772 208.83837 234.85404 208.10183 235.38867 207.28906 C 235.9233 206.4763 236.39543 205.58867 236.8125 204.61719 C 237.64663 202.67422 238.26078 200.40066 238.70703 197.74219 C 239.15329 195.08371 239.4314 192.04011 239.59961 188.55859 C 239.68534 186.78417 239.6798 184.54642 239.71484 182.53711 C 232.48796 177.63276 223.11447 171.78125 218.25391 171.78125 C 181.366 171.78125 181.36882 208.78516 156.77734 208.78516 C 132.18988 208.78516 95.301946 147.10938 58.414062 147.10938 L 58.40625 147.10938 C 43.471674 147.10934 28.661474 151.38916 16.195312 160.375 L 16.195312 190.04492 z" transform="matrix(1.0537554,0,0,1.0481767,-9.35815,35.569324)"/>
    <circle style="fill:#e1e1e1" cx="36.707" cy="109.391" r="7.357"/>
    <circle style="fill:#e1e1e1" cx="52.592" cy="91.388" r="2.97"/>
    <circle style="fill:#e1e1e1" cx="75.437" cy="97.893" r="4.634"/>
    <circle style="fill:#e1e1e1" cx="68.684" cy="162.437" r="2.97"/>
    <circle style="fill:#e1e1e1" cx="81.393" cy="143.072" r="4.785"/>
    <circle style="fill:#e1e1e1" cx="48.26" cy="135.962" r="4.634"/>
    <circle style="fill:#e1e1e1" cx="58.85" cy="124.464" r="1.911"/>
    <path style="opacity:0.15;fill:#ffffff" d="m 182.5594,83.287069 c -23.02658,0 -41.69214,18.666271 -41.69214,41.692341 0,23.02562 18.66639,41.69194 41.69214,41.69194 23.02572,0 41.69211,-18.66632 41.69211,-41.69194 0,-23.02607 -18.66639,-41.692341 -41.69211,-41.692341 z"/>
    <circle style="fill:#e1e1e1;filter:url(#filter969-9)" cx="-240.097" cy="103.808" r="4.724" transform="matrix(0.98099949,0,0,0.98099949,310.97195,-3.9425304)"/>
    <circle style="fill:#e1e1e1;filter:url(#filter991-7)" cx="-263.384" cy="97.177" r="3.028" transform="matrix(0.98099949,0,0,0.98099949,310.97195,-3.9425304)"/>
    <circle style="fill:#e1e1e1;filter:url(#filter1033-1)" cx="-279.577" cy="115.529" r="7.5" transform="matrix(0.98099949,0,0,0.98099949,310.97195,-3.9425304)"/>
    <circle style="fill:#e1e1e1;filter:url(#filter1055-2)" cx="-257.005" cy="130.894" r="1.948" transform="matrix(0.98099949,0,0,0.98099949,310.97195,-3.9425304)"/>
    <circle style="fill:#e1e1e1;filter:url(#filter1077-5)" cx="-267.8" cy="142.614" r="4.724" transform="matrix(0.98099949,0,0,0.98099949,310.97195,-3.9425304)"/>
    <circle style="fill:#e1e1e1;filter:url(#filter1103-5)" cx="-234.026" cy="149.862" r="4.878" transform="matrix(0.98099949,0,0,0.98099949,310.97195,-3.9425304)"/>
    <circle style="fill:#e1e1e1;filter:url(#filter1125-6)" cx="-246.981" cy="169.602" r="3.028" transform="matrix(0.98099949,0,0,0.98099949,310.97195,-3.9425304)"/>
   </g>
  </g>
 </g>
</svg>
